assets/images/members/tno/tno.svg

<svg version="1.2" xmlns="http://www.w3.org/2000/svg" viewBox="0 0 659 232">
	<title>420_1_TNO_wit-ai</title>
	<style>
		.s0 { fill: #000000 } 
	</style>
	<path id="TNO" fill-rule="evenodd" class="s0" d="m658.8 115.9c0 65.5-50.2 115.6-115.7 115.6-59.9 0-104.9-38.7-113.9-94.7v90.9h-53.6c-17.9 0-28.6-5.4-39.4-19.7l-49.5-67.5v87.2h-58.1c-17.2 0-24.6-7.4-24.6-24.6v-115.3h-53.1v139.9h-62.8c-17.3 0-24.7-7.4-24.7-24.6v-115.3h-38.4c-17 0-24.3-7.3-24.3-24.3v-59.4h256.7c17.9 0 28.6 5.4 39.4 19.7l49.6 67.5v-87.2h58.1c17.3 0 24.7 7.4 24.7 24.6v67c9.1-55.3 55.3-95.5 113.9-95.5 67.1 0 115.7 48.6 115.7 115.7zm-79.4 0c0-20-16.3-36.3-36.3-36.3-20 0-36.3 16.3-36.3 36.3 0 20 16.3 36.3 36.3 36.3 20 0 36.3-16.3 36.3-36.3z"/>
</svg>

<svg xmlns="http://www.w3.org/2000/svg" viewBox="0 0 659 232"><title>420_1_TNO_wit-ai</title><path fill-rule="evenodd" d="M658.8 115.9c0 65.5-50.2 115.6-115.7 115.6-59.9 0-104.9-38.7-113.9-94.7v90.9h-53.6c-17.9 0-28.6-5.4-39.4-19.7l-49.5-67.5v87.2h-58.1c-17.2 0-24.6-7.4-24.6-24.6V87.8h-53.1v139.9H88.1c-17.3 0-24.7-7.4-24.7-24.6V87.8H25C8 87.8.7 80.5.7 63.5V4.1h256.7c17.9 0 28.6 5.4 39.4 19.7l49.6 67.5V4.1h58.1c17.3 0 24.7 7.4 24.7 24.6v67C438.3 40.4 484.5.2 543.1.2c67.1 0 115.7 48.6 115.7 115.7m-79.4 0c0-20-16.3-36.3-36.3-36.3s-36.3 16.3-36.3 36.3 16.3 36.3 36.3 36.3 36.3-16.3 36.3-36.3" style="fill:#000"/></svg>
